X:8463
T:L'homme à deux femmes
S:Jean-Marie Verret, from Jean-Marie et Martin Verret, Quadrille du 
S:XIXe et XXe siècle. 1997 
N:The title probably refers to an associated dance rather than the tune.
N:Chords are probably mostly correct. The parts involving diminshed chords seem to
N:work best in root position.
M:2/4
L:1/16
R:Reel
G:Reels ~ Canadian ~ Quebec ~ LRB
H:From the Lamprey River Band Tunebook, a part of the NH Country Dance website.
H:Look for more tunes (New England, Canadian, Swedish) plus resources for 
H:abc notation and New England traditional music and dance; URL below.
U:s = !slide!       % To preserve font, staff layout & other formatting,
U:t = !trill!       % use the file header at the URL below. There are
F:Tunes Home Page - http://nhcountrydance.com/fiddle/the-tunes.html
F:File Header & instructions - http://nhcountrydance.com/fiddle/headers.html
K:G
  Bc |\
"G" (Bd-d)d dBGB  | "G" (Bd-d)d dBGB    | "G" d2gg "Gdim" g2g2    | "D7" f4 ((3fgf) AB |
"D7" (Bc-c)c cBAB | "D7" (Bc-c)c cBAB   | "D7" c2ee "Daug" e2e2   | "G" d3c B2c2 |
"G" (Bd-d)d dBGB  | "G" (Bd-d)d dBGB    | "G" d2gg "Gdim" g2g2    | "D7" f2>e2 e2>c2 |
"D7" c2AB cdef    | "G" ((3ege) dd d2ed |  "A7" ^c2e2 abaf |1 "D7" d4d2 :|2 "D7" d2>d2 ||
|:efed |\
"D7" c2f2 c2f2 | "D7" c2f2 fgfe  | "G" d2g2 d2gd | "G" B4 ABAG   |
"D7" F2G2 A2B2 | "D7" c3d efed   | "G" d4-dedc   | "G" B2g2 efed |
"D7" c2f2 c2f2 | "D7" c2f2 fgfe  | "G" d2g2 d2gd | "G" B4 ABAG   |
"D7" F2GA Bcde | "D7" f2d2 f2>e2 | "Am" ddBd  "D7" e2f2 |1 "G" g3g :|2 "G" g3 ||
|:D E2F2 |\
"G" G3B G2B2 | "G" GBGD E2F2 | "G" G2>B2 "Gdim" G2B2 | "D7" A2>F2 DEFG |
"D7"A2AA "D7" A2"Ddim"B2     | "D7" A2DD "Ddim" DEFG | "D7" A2AA A2B2  |1 "G" G3 :|2  "G" G6 |]

